X:1
T:Take Wings to Thy Soul
T:Charles Hutchinson Gabriel
T:Take Wings to Thy Soul
T:Public Domain
T:Public Domain
T:Public Domain
C:Charles Hutchinson Gabriel
Z:Public Domain
%%score ( 1 2 ) ( 3 4 )
L:1/8
M:6/8
K:Ab
V:1 treble 
V:2 treble 
V:3 bass 
V:4 bass 
V:1
 [CE] | [Ec]>[Ec][Ec] [Ec]2 [EA]/[_GA]/ | [FA]>[FA][FA] [FA]2 [CE] | [CE]>[CE][CE] [EA][EB][Ec] | %4
w: 1.~Take|wings to thy soul; take the|pin- ions of prayer To|rise a- bove tri- als, temp-|
w: 2.~Take|wings to thy soul; take the|pin- ions of praise; A-|rise, like the lark, in the|
w: 3.~Take|wings to thy soul; take the|pin- ions of love, All|faith- ful- ly serv- ing the|
 [Ee][Ed][Ec] [EB]2 E | [Ec]>[Ec][Ec] [Ec]<[Ec](E/_G/) | [FA]>[FA][FA] [FA]2 [DF] | %7
w: ta- tions and care; New|sures of bless- ing so trust- *|ly bring, And hold sweet|
w: pure morn- ing rays; With|ols of glad- ness as fresh *|the dew, Give thanks for|
w: Mas- ter a- bove; O,|to the need- y with tid- *|of cheer; Spread heav- en-|
 [CE][EA][EB] [Ec]<[Ee][Fd] | [Ec]>[Ec][DB] [CA]2 ||"^Refrain" [Ec] | %10
w: com- mun- ion with Je- sus,|thy king. Take wings,|bright|
w: His mer- cies, a- bun- dant|and true. * *||
w: ly sun- shine where path- ways|are drear. * *||
 (A2 B [Ae]2) [Ac] (E2 F [EA]2) [CE] | [CA]>[CA][CA] [=Dc][DB][DA] | [EB]<[EB][Ec] [EB]2 [Ec] | %13
w: wings; * * Take wings * * to|O, be- liev- er, to- day!|* Take wings, bright wings;|
w: |||
w: |||
 (A2 B [Ae]2) [_Gc] | (F2 _G [FA]2) [DF] | [CE][EA][EB] [Ec]<[Ee][Fd] | [Ec]>[Ec][DB] [CA]2 |] %17
w: Mount * * up|the * * ea-|re- joice in thy way. *||
w: ||||
w: ||||
V:2
 x | x6 | x6 | x6 | x5 E | x5 A | x6 | x6 | x5 || x | e3- x A3- x5 | x6 | x6 | e3- x3 | A3- x3 | %15
w: ||||mea-|ful-|||||the soul,|||as|gle,|
w: ||||car-|as||||||||||
w: ||||haste|ings||||||||||
 x6 | x5 |] %17
w: ||
w: ||
w: ||
V:3
 [A,,A,] | [A,,A,]>[A,,A,][A,,A,] [A,,A,]2 [C,A,]/[C,A,]/ | [D,D]>[D,D][D,D] [D,D]2 [D,A,] | %3
w: ~|~ ~ ~ ~ ~ ~|~ ~ ~ ~ ~|
 [A,,A,]>[A,,A,][A,,A,] [C,A,][E,G,]A, | [G,B,][G,B,]A, [E,G,]2 [E,G,] | %5
w: ~ ~ ~ ~ ~ ~|~ ~ ~ ~ ~|
 [A,,A,]>[A,,A,][A,,A,] [A,,A,]<[A,,A,][C,A,] | [D,D]>[D,D][D,D] [D,D]2 [D,A,] | %7
w: ~ ~ ~ ~ ~ ~|~ ~ ~ ~ ~|
 [A,,A,][C,A,][E,G,] A,<[A,C][D,A,] | [E,A,]>[E,A,][E,G,] [A,,A,]2 || A, | %10
w: ~ ~ ~ ~ ~ ~|~ ~ ~ take|wings|
 [A,C]2 [A,D] [A,C]2 [A,E] C2 D [A,,C]2 A, | [F,A,]>[F,A,][F,A,] [B,,A,][B,,A,][B,,A,] | %12
w: ~ bright wings, ~ ~ ~ ~ ~|~ ~ ~ ~ ~ ~|
 [E,G,]<[E,G,][E,A,] [E,G,]2 A, | [A,C]2 [A,D] [A,C]2 [A,E] | D2 E [D,D]2 [D,A,] | %15
w: ~ take wings ~ ~|wings, * * *||
 [A,,A,][C,A,][E,G,] A,<[A,C][D,A,] | [E,A,]>[E,A,][E,G,] [A,,A,]2 |] %17
w: ||
V:4
 x | x6 | x6 | x5 A, | x2 A, x3 | x6 | x6 | x3 A,/ x5/2 | x5 || A, | x6 A,,3- A, x2 | x6 | x5 A, | %13
w: |||~|~|||~||~|~ *||bright|
 x6 | D,3- x3 | x3 A,/ x5/2 | x5 |] %17
w: ||||

